X: 2410
Q: "Slow Hornpipe."
M: C
L: 1/8
K: Am
|:\
e>dc>e d>cB>d |[1,3 c>BA>c B>^GE2 :|[2,4 c>AB>^G A4 ::\
E2e>d c>BA2 |
E2e>d c>B A2 |\
g2-g>f e>fg2 | d>ed>c B>cd2 |\
E2e>d c>BA2 | E2e>d c>BA2 |\


